style-guide/assets/xd-icons-sitemap.svg

<?xml version="1.0" encoding="UTF-8"?>
<svg width="24px" height="24px" viewBox="0 0 24 24" version="1.1" xmlns="http://www.w3.org/2000/svg" xmlns:xlink="http://www.w3.org/1999/xlink">
    <!-- Generator: Sketch 51.3 (57544) - http://www.bohemiancoding.com/sketch -->
    <title>sitemap</title>
    <desc>Created with Sketch.</desc>
    <defs>
        <path d="M3,18.5 C3.552,18.5 4,18.053 4,17.5 L4,13 L11,13 L11,17.5 C11,18.053 11.448,18.5 12,18.5 C12.552,18.5 13,18.053 13,17.5 L13,13 L20,13 L20,17.5 C20,18.053 20.448,18.5 21,18.5 C21.552,18.5 22,18.053 22,17.5 L22,12 C22,11.447 21.552,11 21,11 L13,11 L13,6.5 C13,5.947 12.552,5.5 12,5.5 C11.448,5.5 11,5.947 11,6.5 L11,11 L3,11 C2.448,11 2,11.447 2,12 L2,17.5 C2,18.053 2.448,18.5 3,18.5 M10,2 L14,2 C14.552,2 15,1.553 15,1 C15,0.447 14.552,0 14,0 L10,0 C9.448,0 9,0.447 9,1 C9,1.553 9.448,2 10,2 M5,22 L1,22 C0.448,22 0,22.447 0,23 C0,23.553 0.448,24 1,24 L5,24 C5.552,24 6,23.553 6,23 C6,22.447 5.552,22 5,22 M23,22 L19,22 C18.448,22 18,22.447 18,23 C18,23.553 18.448,24 19,24 L23,24 C23.552,24 24,23.553 24,23 C24,22.447 23.552,22 23,22 M14,22 L10,22 C9.448,22 9,22.447 9,23 C9,23.553 9.448,24 10,24 L14,24 C14.552,24 15,23.553 15,23 C15,22.447 14.552,22 14,22" id="path-1"></path>
    </defs>
    <g id="sitemap" stroke="none" stroke-width="1" fill="none" fill-rule="evenodd">
        <mask id="mask-2" fill="white">
            <use xlink:href="#path-1"></use>
        </mask>
        <use id="icons/24px/Sitemap" fill="#000000" xlink:href="#path-1"></use>
    </g>
</svg>

<svg viewBox="0 0 24 24" xmlns="http://www.w3.org/2000/svg" xmlns:xlink="http://www.w3.org/1999/xlink">
  <path d="M3 18.5a1 1 0 0 0 1-1V13h7v4.5a1 1 0 1 0 2 0V13h7v4.5a1 1 0 1 0 2 0V12a1 1 0 0 0-1-1h-8V6.5a1 1 0 1 0-2 0V11H3a1 1 0 0 0-1 1v5.5a1 1 0 0 0 1 1M10 2h4a1 1 0 1 0 0-2h-4a1 1 0 1 0 0 2M5 22H1a1 1 0 1 0 0 2h4a1 1 0 1 0 0-2m18 0h-4a1 1 0 1 0 0 2h4a1 1 0 1 0 0-2m-9 0h-4a1 1 0 1 0 0 2h4a1 1 0 1 0 0-2"/>
</svg>
